dist/img/pantone.svg

<svg enable-background="new 0 0 511.883 511.883" viewBox="0 0 511.883 511.883" xmlns="http://www.w3.org/2000/svg"><path d="m10.654 383.913c-5.889 0-10.654 4.78-10.654 10.669v106.647c0 5.89 4.765 10.654 10.654 10.654h490.543c5.904 0 10.686-4.765 10.686-10.654v-106.647c0-5.889-4.781-10.669-10.686-10.669z" fill="#ac92eb"/><path d="m498.198 326.16-40.834-98.524c-2.249-5.437-8.498-8.03-13.934-5.765l-443.429 183.676v55.487l21.058 50.848h56.612l414.749-171.789c5.435-2.248 8.028-8.481 5.778-13.933z" fill="#5d9cec"/><path d="m.001 473.547 38.335 38.335h51.488l328.675-328.659c4.154-4.171 4.154-10.919 0-15.09l-75.421-75.405c-4.155-4.171-10.903-4.171-15.074 0l-328.003 328.019z" fill="#4fc2e9"/><path d="m.001 490.654 51.238 21.229h55.487l183.677-443.445c2.265-5.436-.312-11.685-5.765-13.934l-98.524-40.803c-5.436-2.265-11.685.328-13.934 5.765l-172.179 415.715z" fill="#48cfad"/><path d="m.001 501.228c0 5.89 4.765 10.654 10.654 10.654h106.632c5.905 0 10.685-4.765 10.685-10.654v-490.558c0-5.89-4.78-10.67-10.685-10.67h-106.633c-5.889.001-10.654 4.781-10.654 10.67v490.558z" fill="#a0d468"/><path d="m.001 383.927v117.301c0 5.89 4.765 10.654 10.654 10.654h106.632c5.905 0 10.685-4.765 10.685-10.654v-117.301z" fill="#e6e9ed"/><path d="m63.986 437.243c-5.905 0-10.685 4.765-10.685 10.654s4.78 10.669 10.685 10.669c5.874 0 10.654-4.779 10.654-10.669s-4.781-10.654-10.654-10.654z"/><path d="m68.047 458.161c-5.437 2.249-11.669-.328-13.935-5.78-2.25-5.437.344-11.669 5.78-13.935 5.436-2.249 11.685.344 13.934 5.78s-.342 11.685-5.779 13.935z"/><path d="m71.609 454.693c-4.155 4.155-10.904 4.155-15.075 0-4.171-4.171-4.171-10.919 0-15.09 4.171-4.155 10.919-4.155 15.075 0 4.171 4.17 4.171 10.918 0 15.09z"/><path d="m73.827 451.991c-2.25 5.437-8.498 8.014-13.934 5.765-5.437-2.25-8.03-8.498-5.78-13.935 2.265-5.437 8.498-8.029 13.935-5.765 5.451 2.25 8.029 8.482 5.779 13.935z"/><path d="m53.301 447.897c0 5.89 4.78 10.669 10.685 10.669 5.874 0 10.654-4.779 10.654-10.669s-4.78-10.654-10.654-10.654c-5.905 0-10.685 4.765-10.685 10.654z"/><path d="m53.301 447.897c0 5.89 4.78 10.669 10.685 10.669 5.874 0 10.654-4.779 10.654-10.669s-4.78-10.654-10.654-10.654c-5.905 0-10.685 4.765-10.685 10.654z" fill="#434a54"/></svg>

<?xml version="1.0" encoding="iso-8859-1"?>
<!-- Generator: Adobe Illustrator 19.0.0, SVG Export Plug-In . SVG Version: 6.00 Build 0)  -->
<svg version="1.1" id="Layer_1" xmlns="http://www.w3.org/2000/svg" xmlns:xlink="http://www.w3.org/1999/xlink" x="0px" y="0px"
	 viewBox="0 0 511.883 511.883" style="enable-background:new 0 0 511.883 511.883;" xml:space="preserve">
<path style="fill:#AC92EB;" d="M10.654,383.913C4.765,383.913,0,388.693,0,394.582v106.647c0,5.89,4.765,10.654,10.654,10.654
	h490.543c5.904,0,10.686-4.765,10.686-10.654V394.582c0-5.889-4.781-10.669-10.686-10.669H10.654z"/>
<path style="fill:#5D9CEC;" d="M498.198,326.16l-40.834-98.524c-2.249-5.437-8.498-8.03-13.934-5.765L0.001,405.547v55.487
	l21.058,50.848h56.612L492.42,340.093C497.855,337.845,500.448,331.612,498.198,326.16z"/>
<path style="fill:#4FC2E9;" d="M0.001,473.547l38.335,38.335h51.488l328.675-328.659c4.154-4.171,4.154-10.919,0-15.09
	l-75.421-75.405c-4.155-4.171-10.903-4.171-15.074,0L0.001,420.747V473.547z"/>
<path style="fill:#48CFAD;" d="M0.001,490.654l51.238,21.229h55.487L290.403,68.438c2.265-5.436-0.312-11.685-5.765-13.934
	l-98.524-40.803c-5.436-2.265-11.685,0.328-13.934,5.765L0.001,435.181V490.654z"/>
<path style="fill:#A0D468;" d="M0.001,501.228c0,5.89,4.765,10.654,10.654,10.654h106.632c5.905,0,10.685-4.765,10.685-10.654V10.67
	c0-5.89-4.78-10.67-10.685-10.67H10.654C4.765,0.001,0,4.781,0,10.67v490.558H0.001z"/>
<path style="fill:#E6E9ED;" d="M0.001,383.927v117.301c0,5.89,4.765,10.654,10.654,10.654h106.632
	c5.905,0,10.685-4.765,10.685-10.654V383.927H0.001z"/>
<path d="M63.986,437.243c-5.905,0-10.685,4.765-10.685,10.654s4.78,10.669,10.685,10.669c5.874,0,10.654-4.779,10.654-10.669
	S69.859,437.243,63.986,437.243z"/>
<path d="M68.047,458.161c-5.437,2.249-11.669-0.328-13.935-5.78c-2.25-5.437,0.344-11.669,5.78-13.935
	c5.436-2.249,11.685,0.344,13.934,5.78S73.484,455.911,68.047,458.161z"/>
<path d="M71.609,454.693c-4.155,4.155-10.904,4.155-15.075,0c-4.171-4.171-4.171-10.919,0-15.09c4.171-4.155,10.919-4.155,15.075,0
	C75.78,443.773,75.78,450.521,71.609,454.693z"/>
<path d="M73.827,451.991c-2.25,5.437-8.498,8.014-13.934,5.765c-5.437-2.25-8.03-8.498-5.78-13.935
	c2.265-5.437,8.498-8.029,13.935-5.765C73.499,440.306,76.077,446.538,73.827,451.991z"/>
<path d="M53.301,447.897c0,5.89,4.78,10.669,10.685,10.669c5.874,0,10.654-4.779,10.654-10.669s-4.78-10.654-10.654-10.654
	C58.081,437.243,53.301,442.008,53.301,447.897z"/>
<path style="fill:#434A54;" d="M53.301,447.897c0,5.89,4.78,10.669,10.685,10.669c5.874,0,10.654-4.779,10.654-10.669
	s-4.78-10.654-10.654-10.654C58.081,437.243,53.301,442.008,53.301,447.897z"/>
<g>
</g>
<g>
</g>
<g>
</g>
<g>
</g>
<g>
</g>
<g>
</g>
<g>
</g>
<g>
</g>
<g>
</g>
<g>
</g>
<g>
</g>
<g>
</g>
<g>
</g>
<g>
</g>
<g>
</g>
</svg>
